X:1
T:The World Must Be Taken
T:G. Tabor Thompson
T:The World Must Be Taken
T:Public Domain
T:Public Domain
T:Public Domain
C:G. Tabor Thompson
Z:Public Domain
%%score ( 1 2 ) ( 3 4 )
L:1/8
M:4/4
K:D
V:1 treble 
V:2 treble 
V:3 bass 
V:4 bass 
V:1
 ([DF]>[EG]) | [FA]2 [Fd]>[Fd] [Fc][Fc] [DB]>[DB] | [FA]6 [FA]>[FA] | %3
w: 1.~The *|world must be tak- en for the|Lord; On- ward,|
w: 2.~The *|world must be tak- en for the|Lord; And if|
w: 3.~The *|world must be tak- en for the|Lord; Fi- nal|
w: 4.~The *|world must be tak- en for the|Lord; Ev- ’ry|
 [GB]2 [GB]>[GB] [FA][FA] [EG]>[DF] | [CE]6 ([DF]>[FA]) | [Fd]2 [Fd]>[Ac] [Ge][Gd] [Gc]>[GB] | %6
w: sol- diers, and arm ye for the|fight. “In *|His Name” now watch and fight and|
w: faith- ful we know that we shall|win. Each~ *|day there’s a shout a- long the|
w: vic- t’ry is near- er ev- ’ry|day. The *|past holds no re- cord of a|
w: na- tion and land shall yet be|won. His~ *|ban- ner shall wave o’er all the|
 [FA]6 [FA]>[Ad] | [Gc]2 [Gc]>[GB] [GA][GA] [GB]>[Gc] | [Fd]6 ||"^Refrain" [Ec]>[Fd] | %10
w: pray, Till all|foes fear and trem- ble at the|sight.||
w: line As we|cap- ture some cit- a- del of|sin.|Ev- er|
w: time When so|ma- ny as now the Lord o-|bey.||
w: world, For our|God with His ar- my march- es|on.||
 (G>G GG G)G [GB]>[FA] | (F>F FF F)F ([DF]>[EG]) | [FA]2 [Ad]>[Ad] [Gc][Gc] [Fd]>[Fd] | %13
w: |||
w: on- * * * * ward, Christ- ian|The * * * * world must *|en for the Lord, Ev- er on-|
w: |||
w: |||
 (E2 A>A A2) [FA]>[GB] | (F>F FF) (FF) [Ae]>[Ad] | (GGGG G)G (c>B) | %16
w: |||
w: ward * * * be your|word, * * * The * world must|en * * * * for the *|
w: |||
w: |||
 [EA]2 [EA]>[GB] [FA][EG] [DF]>[CE] | (A,2 B,B, A,2) |] %18
w: ||
w: ||
w: ||
w: ||
V:2
 x2 | x8 | x8 | x8 | x8 | x8 | x8 | x8 | x6 || x2 | e4 A2 x2 | d4 A2 x2 | x8 | e6 x2 | A4 d2 x2 | %15
w: |||||||||||||||
w: ||||||||||sol- dier,|be tak-||watch-|be tak-|
 c4 B2 G2 | x8 | D6 |] %18
w: |||
w: Lord. * *|||
V:3
 [D,A,]2 | [D,D]2 [D,A,]>[D,A,] [F,^A,][F,A,] [G,B,]>[G,B,] | [D,D]6 [D,D]>[D,D] | %3
w: ~|~ ~ ~ ~ ~ ~ ~|~ ~ ~|
 [G,D]2 [G,D]>[G,D] [D,D][D,D] [C,A,]>[D,A,] | [A,,A,]6 [D,A,]2 | %5
w: ~ ~ ~ ~ ~ ~ ~|~ ~|
 [D,A,]2 [D,A,]>[F,A,] [G,B,][G,B,] [G,B,]>[G,D] | [D,D]6 [D,A,]>[F,A,] | %7
w: ~ ~ ~ ~ ~ ~ ~|~ ~ ~|
 A,2 A,>A, [A,,A,][A,,A,] [A,,A,]>[A,,A,] | [D,A,]6 || [A,,A,]>[A,,A,] | %10
w: ~ ~ ~ ~ ~ ~ ~|on-|ward, ev-|
 [A,,A,]>[A,,A,] [A,,A,][A,,A,] [A,,A,][A,,C] [D,D]>[D,D] | %11
w: er on- ward Christ- ian sol- dier, Christ-|
 [D,A,]>[D,A,] [D,A,][D,A,] [D,D][D,D] [D,A,]2 | [D,D]2 [F,A,]>[F,A,] [E,A,][E,A,] [D,A,]>[D,A,] | %13
w: ian sol- dier, The world must be|tak- en for the Lord, for the|
 [A,,A,]2 [A,C]>[A,C] [A,C]2 [D,D]>[D,D] | [D,D]>[D,D] [D,D][D,D] [D,A,][D,A,] [F,A,]>[F,A,] | %15
w: Lord, Ev- er on- ward, ev-|er on- ward be your watch- word, be|
 [G,B,][G,B,][G,B,][G,B,] [G,D][G,D] [G,D]2 | [A,C]2 [A,C]>[A,C] [A,,A,][A,,A,] [A,,A,]>[A,,G,] | %17
w: your watch- word, The world must be|tak- en for the Lord, for the|
 [D,F,]2 [D,G,][D,G,] [D,F,]2 |] %18
w: Lord. * * *|
V:4
 x2 | x8 | x8 | x8 | x8 | x8 | x8 | A,2 A,>A, x4 | x6 || x2 | x8 | x8 | x8 | x8 | x8 | x8 | x8 | %17
w: |||||||~ Ev- er||||||||||
 x6 |] %18
w: |

